images/50970916.svg

<?xml version="1.0" encoding="UTF-8"?>
<svg xmlns="http://www.w3.org/2000/svg" xmlns:xlink="http://www.w3.org/1999/xlink" width="300pt" height="300pt" viewBox="0 0 300 300" version="1.1">
<defs>
<g>
<symbol overflow="visible" id="glyph0-0">
<path style="stroke:none;" d="M 0.453125 1.59375 L 0.453125 -6.34375 L 4.953125 -6.34375 L 4.953125 1.59375 Z M 0.953125 1.09375 L 4.453125 1.09375 L 4.453125 -5.84375 L 0.953125 -5.84375 Z M 0.953125 1.09375 "/>
</symbol>
<symbol overflow="visible" id="glyph0-1">
<path style="stroke:none;" d="M 3.546875 -5.953125 C 2.898438 -5.953125 2.382812 -5.710938 2 -5.234375 C 1.625 -4.753906 1.4375 -4.101562 1.4375 -3.28125 C 1.4375 -2.445312 1.625 -1.789062 2 -1.3125 C 2.382812 -0.832031 2.898438 -0.59375 3.546875 -0.59375 C 4.191406 -0.59375 4.703125 -0.832031 5.078125 -1.3125 C 5.453125 -1.789062 5.640625 -2.445312 5.640625 -3.28125 C 5.640625 -4.101562 5.453125 -4.753906 5.078125 -5.234375 C 4.703125 -5.710938 4.191406 -5.953125 3.546875 -5.953125 Z M 3.546875 -6.6875 C 4.460938 -6.6875 5.195312 -6.375 5.75 -5.75 C 6.300781 -5.132812 6.578125 -4.3125 6.578125 -3.28125 C 6.578125 -2.238281 6.300781 -1.410156 5.75 -0.796875 C 5.195312 -0.179688 4.460938 0.125 3.546875 0.125 C 2.617188 0.125 1.878906 -0.179688 1.328125 -0.796875 C 0.773438 -1.410156 0.5 -2.238281 0.5 -3.28125 C 0.5 -4.3125 0.773438 -5.132812 1.328125 -5.75 C 1.878906 -6.375 2.617188 -6.6875 3.546875 -6.6875 Z M 3.546875 -6.6875 "/>
</symbol>
<symbol overflow="visible" id="glyph0-2">
<path style="stroke:none;" d="M 0.890625 -6.5625 L 2.078125 -6.5625 L 4.984375 -1.078125 L 4.984375 -6.5625 L 5.84375 -6.5625 L 5.84375 0 L 4.65625 0 L 1.75 -5.484375 L 1.75 0 L 0.890625 0 Z M 0.890625 -6.5625 "/>
</symbol>
<symbol overflow="visible" id="glyph0-3">
<path style="stroke:none;" d="M 0.890625 -6.5625 L 1.765625 -6.5625 L 1.765625 -3.875 L 5 -3.875 L 5 -6.5625 L 5.890625 -6.5625 L 5.890625 0 L 5 0 L 5 -3.125 L 1.765625 -3.125 L 1.765625 0 L 0.890625 0 Z M 0.890625 -6.5625 "/>
</symbol>
</g>
</defs>
<g id="surface23221">
<rect x="0" y="0" width="300" height="300" style="fill:rgb(100%,100%,100%);fill-opacity:1;stroke:none;"/>
<path style="fill:none;stroke-width:1.2;stroke-linecap:butt;stroke-linejoin:miter;stroke:rgb(100%,0%,0%);stroke-opacity:1;stroke-miterlimit:10;" d="M 253.050781 104.230469 L 258.898438 111.101562 "/>
<path style="fill:none;stroke-width:1.2;stroke-linecap:butt;stroke-linejoin:miter;stroke:rgb(0%,0%,0%);stroke-opacity:1;stroke-miterlimit:10;" d="M 258.898438 111.101562 L 264.75 117.972656 "/>
<path style="fill:none;stroke-width:1.2;stroke-linecap:butt;stroke-linejoin:miter;stroke:rgb(0%,0%,0%);stroke-opacity:1;stroke-miterlimit:10;" d="M 235.296875 107.488281 L 244.175781 105.859375 "/>
<path style="fill:none;stroke-width:1.2;stroke-linecap:butt;stroke-linejoin:miter;stroke:rgb(100%,0%,0%);stroke-opacity:1;stroke-miterlimit:10;" d="M 244.175781 105.859375 L 253.050781 104.230469 "/>
<path style=" stroke:none;fill-rule:nonzero;fill:rgb(100%,100%,100%);fill-opacity:1;" d="M 249.050781 98.730469 L 257.050781 98.730469 L 257.050781 109.730469 L 249.050781 109.730469 Z M 249.050781 98.730469 "/>
<g style="fill:rgb(100%,0%,0%);fill-opacity:1;">
  <use xlink:href="#glyph0-1" x="249.050781" y="107.393555"/>
</g>
<path style="fill:none;stroke-width:1.2;stroke-linecap:butt;stroke-linejoin:miter;stroke:rgb(0%,0%,0%);stroke-opacity:1;stroke-miterlimit:10;" d="M 264.75 117.972656 L 258.695312 134.976562 "/>
<path style="fill:none;stroke-width:1.2;stroke-linecap:butt;stroke-linejoin:miter;stroke:rgb(0%,0%,0%);stroke-opacity:1;stroke-miterlimit:10;" d="M 258.695312 134.976562 L 249.820312 136.609375 "/>
<path style="fill:none;stroke-width:1.2;stroke-linecap:butt;stroke-linejoin:miter;stroke:rgb(0%,0%,100%);stroke-opacity:1;stroke-miterlimit:10;" d="M 249.820312 136.609375 L 240.945312 138.238281 "/>
<path style="fill:none;stroke-width:1.2;stroke-linecap:butt;stroke-linejoin:miter;stroke:rgb(0%,0%,100%);stroke-opacity:1;stroke-miterlimit:10;" d="M 240.945312 138.238281 L 235.09375 131.367188 "/>
<path style="fill:none;stroke-width:1.2;stroke-linecap:butt;stroke-linejoin:miter;stroke:rgb(0%,0%,0%);stroke-opacity:1;stroke-miterlimit:10;" d="M 235.09375 131.367188 L 229.246094 124.492188 "/>
<path style="fill:none;stroke-width:1.2;stroke-linecap:butt;stroke-linejoin:miter;stroke:rgb(0%,0%,100%);stroke-opacity:1;stroke-miterlimit:10;" d="M 240.945312 138.238281 L 237.917969 146.738281 "/>
<path style="fill:none;stroke-width:1.2;stroke-linecap:butt;stroke-linejoin:miter;stroke:rgb(0%,0%,0%);stroke-opacity:1;stroke-miterlimit:10;" d="M 237.917969 146.738281 L 234.890625 155.242188 "/>
<path style=" stroke:none;fill-rule:nonzero;fill:rgb(100%,100%,100%);fill-opacity:1;" d="M 237.945312 132.738281 L 244.945312 132.738281 L 244.945312 143.738281 L 237.945312 143.738281 Z M 237.945312 132.738281 "/>
<g style="fill:rgb(0%,0%,100%);fill-opacity:1;">
  <use xlink:href="#glyph0-2" x="237.945312" y="141.401367"/>
</g>
<path style="fill:none;stroke-width:1.2;stroke-linecap:butt;stroke-linejoin:miter;stroke:rgb(0%,0%,0%);stroke-opacity:1;stroke-miterlimit:10;" d="M 229.246094 124.492188 L 235.296875 107.488281 "/>
<path style="fill:none;stroke-width:1.2;stroke-linecap:butt;stroke-linejoin:miter;stroke:rgb(0%,0%,0%);stroke-opacity:1;stroke-miterlimit:10;" d="M 234.890625 155.242188 L 217.140625 158.503906 "/>
<path style="fill:none;stroke-width:1.2;stroke-linecap:butt;stroke-linejoin:miter;stroke:rgb(0%,0%,0%);stroke-opacity:1;stroke-miterlimit:10;" d="M 233.882812 159.746094 L 219.683594 162.351562 "/>
<path style="fill:none;stroke-width:1.2;stroke-linecap:butt;stroke-linejoin:miter;stroke:rgb(0%,0%,0%);stroke-opacity:1;stroke-miterlimit:10;" d="M 246.589844 168.984375 L 234.890625 155.242188 "/>
<path style="fill:none;stroke-width:1.2;stroke-linecap:butt;stroke-linejoin:miter;stroke:rgb(0%,0%,0%);stroke-opacity:1;stroke-miterlimit:10;" d="M 217.140625 158.503906 L 211.085938 175.507812 "/>
<path style="fill:none;stroke-width:1.2;stroke-linecap:butt;stroke-linejoin:miter;stroke:rgb(0%,0%,0%);stroke-opacity:1;stroke-miterlimit:10;" d="M 211.085938 175.507812 L 222.785156 189.25 "/>
<path style="fill:none;stroke-width:1.2;stroke-linecap:butt;stroke-linejoin:miter;stroke:rgb(0%,0%,0%);stroke-opacity:1;stroke-miterlimit:10;" d="M 215.492188 174.128906 L 224.851562 185.121094 "/>
<path style="fill:none;stroke-width:1.2;stroke-linecap:butt;stroke-linejoin:miter;stroke:rgb(0%,0%,0%);stroke-opacity:1;stroke-miterlimit:10;" d="M 211.085938 175.507812 L 193.335938 178.765625 "/>
<path style="fill:none;stroke-width:1.2;stroke-linecap:butt;stroke-linejoin:miter;stroke:rgb(0%,0%,0%);stroke-opacity:1;stroke-miterlimit:10;" d="M 222.785156 189.25 L 240.539062 185.988281 "/>
<path style="fill:none;stroke-width:1.2;stroke-linecap:butt;stroke-linejoin:miter;stroke:rgb(0%,0%,0%);stroke-opacity:1;stroke-miterlimit:10;" d="M 240.539062 185.988281 L 246.589844 168.984375 "/>
<path style="fill:none;stroke-width:1.2;stroke-linecap:butt;stroke-linejoin:miter;stroke:rgb(0%,0%,0%);stroke-opacity:1;stroke-miterlimit:10;" d="M 237.144531 182.867188 L 241.984375 169.261719 "/>
<path style="fill:none;stroke-width:1.2;stroke-linecap:butt;stroke-linejoin:miter;stroke:rgb(0%,0%,0%);stroke-opacity:1;stroke-miterlimit:10;" d="M 191.332031 178.054688 L 188.308594 186.554688 "/>
<path style="fill:none;stroke-width:1.2;stroke-linecap:butt;stroke-linejoin:miter;stroke:rgb(100%,0%,0%);stroke-opacity:1;stroke-miterlimit:10;" d="M 188.308594 186.554688 L 185.28125 195.058594 "/>
<path style="fill:none;stroke-width:1.2;stroke-linecap:butt;stroke-linejoin:miter;stroke:rgb(0%,0%,0%);stroke-opacity:1;stroke-miterlimit:10;" d="M 195.335938 179.476562 L 192.308594 187.980469 "/>
<path style="fill:none;stroke-width:1.2;stroke-linecap:butt;stroke-linejoin:miter;stroke:rgb(100%,0%,0%);stroke-opacity:1;stroke-miterlimit:10;" d="M 192.308594 187.980469 L 189.28125 196.484375 "/>
<path style="fill:none;stroke-width:1.2;stroke-linecap:butt;stroke-linejoin:miter;stroke:rgb(0%,0%,0%);stroke-opacity:1;stroke-miterlimit:10;" d="M 193.335938 178.765625 L 187.484375 171.894531 "/>
<path style="fill:none;stroke-width:1.2;stroke-linecap:butt;stroke-linejoin:miter;stroke:rgb(0%,0%,100%);stroke-opacity:1;stroke-miterlimit:10;" d="M 187.484375 171.894531 L 181.632812 165.023438 "/>
<path style=" stroke:none;fill-rule:nonzero;fill:rgb(100%,100%,100%);fill-opacity:1;" d="M 179.28125 190.269531 L 187.28125 190.269531 L 187.28125 201.269531 L 179.28125 201.269531 Z M 179.28125 190.269531 "/>
<g style="fill:rgb(100%,0%,0%);fill-opacity:1;">
  <use xlink:href="#glyph0-1" x="179.28125" y="198.932617"/>
</g>
<path style="fill:none;stroke-width:1.2;stroke-linecap:butt;stroke-linejoin:miter;stroke:rgb(0%,0%,100%);stroke-opacity:1;stroke-miterlimit:10;" d="M 181.632812 165.023438 L 172.757812 166.652344 "/>
<path style="fill:none;stroke-width:1.2;stroke-linecap:butt;stroke-linejoin:miter;stroke:rgb(0%,0%,0%);stroke-opacity:1;stroke-miterlimit:10;" d="M 172.757812 166.652344 L 163.882812 168.28125 "/>
<path style=" stroke:none;fill-rule:nonzero;fill:rgb(100%,100%,100%);fill-opacity:1;" d="M 174.632812 159.523438 L 188.632812 159.523438 L 188.632812 170.523438 L 174.632812 170.523438 Z M 174.632812 159.523438 "/>
<g style="fill:rgb(0%,0%,100%);fill-opacity:1;">
  <use xlink:href="#glyph0-2" x="174.632812" y="168.186523"/>
  <use xlink:href="#glyph0-3" x="181.610352" y="168.186523"/>
</g>
<path style="fill:none;stroke-width:1.2;stroke-linecap:butt;stroke-linejoin:miter;stroke:rgb(0%,0%,0%);stroke-opacity:1;stroke-miterlimit:10;" d="M 163.882812 168.28125 L 152.183594 154.539062 "/>
<path style="fill:none;stroke-width:1.2;stroke-linecap:butt;stroke-linejoin:miter;stroke:rgb(0%,0%,0%);stroke-opacity:1;stroke-miterlimit:10;" d="M 159.476562 169.660156 L 150.117188 158.664062 "/>
<path style="fill:none;stroke-width:1.2;stroke-linecap:butt;stroke-linejoin:miter;stroke:rgb(0%,0%,0%);stroke-opacity:1;stroke-miterlimit:10;" d="M 157.828125 185.285156 L 163.882812 168.28125 "/>
<path style="fill:none;stroke-width:1.2;stroke-linecap:butt;stroke-linejoin:miter;stroke:rgb(0%,0%,0%);stroke-opacity:1;stroke-miterlimit:10;" d="M 152.183594 154.539062 L 134.429688 157.796875 "/>
<path style="fill:none;stroke-width:1.2;stroke-linecap:butt;stroke-linejoin:miter;stroke:rgb(0%,0%,0%);stroke-opacity:1;stroke-miterlimit:10;" d="M 134.429688 157.796875 L 128.582031 150.925781 "/>
<path style="fill:none;stroke-width:1.2;stroke-linecap:butt;stroke-linejoin:miter;stroke:rgb(0%,0%,100%);stroke-opacity:1;stroke-miterlimit:10;" d="M 128.582031 150.925781 L 122.730469 144.054688 "/>
<path style="fill:none;stroke-width:1.2;stroke-linecap:butt;stroke-linejoin:miter;stroke:rgb(0%,0%,0%);stroke-opacity:1;stroke-miterlimit:10;" d="M 134.429688 157.796875 L 128.378906 174.800781 "/>
<path style="fill:none;stroke-width:1.2;stroke-linecap:butt;stroke-linejoin:miter;stroke:rgb(0%,0%,0%);stroke-opacity:1;stroke-miterlimit:10;" d="M 137.824219 160.921875 L 132.984375 174.527344 "/>
<path style="fill:none;stroke-width:1.2;stroke-linecap:butt;stroke-linejoin:miter;stroke:rgb(0%,0%,100%);stroke-opacity:1;stroke-miterlimit:10;" d="M 122.730469 144.054688 L 113.855469 145.683594 "/>
<path style="fill:none;stroke-width:1.2;stroke-linecap:butt;stroke-linejoin:miter;stroke:rgb(0%,0%,0%);stroke-opacity:1;stroke-miterlimit:10;" d="M 113.855469 145.683594 L 104.976562 147.316406 "/>
<path style=" stroke:none;fill-rule:nonzero;fill:rgb(100%,100%,100%);fill-opacity:1;" d="M 115.730469 138.554688 L 129.730469 138.554688 L 129.730469 149.554688 L 115.730469 149.554688 Z M 115.730469 138.554688 "/>
<g style="fill:rgb(0%,0%,100%);fill-opacity:1;">
  <use xlink:href="#glyph0-2" x="115.730469" y="147.217773"/>
  <use xlink:href="#glyph0-3" x="122.708008" y="147.217773"/>
</g>
<path style="fill:none;stroke-width:1.2;stroke-linecap:butt;stroke-linejoin:miter;stroke:rgb(0%,0%,0%);stroke-opacity:1;stroke-miterlimit:10;" d="M 104.976562 147.316406 L 93.277344 133.570312 "/>
<path style="fill:none;stroke-width:1.2;stroke-linecap:butt;stroke-linejoin:miter;stroke:rgb(0%,0%,0%);stroke-opacity:1;stroke-miterlimit:10;" d="M 100.574219 148.691406 L 91.214844 137.699219 "/>
<path style="fill:none;stroke-width:1.2;stroke-linecap:butt;stroke-linejoin:miter;stroke:rgb(0%,0%,0%);stroke-opacity:1;stroke-miterlimit:10;" d="M 98.925781 164.320312 L 104.976562 147.316406 "/>
<path style="fill:none;stroke-width:1.2;stroke-linecap:butt;stroke-linejoin:miter;stroke:rgb(0%,0%,0%);stroke-opacity:1;stroke-miterlimit:10;" d="M 93.277344 133.570312 L 75.527344 136.832031 "/>
<path style="fill:none;stroke-width:1.2;stroke-linecap:butt;stroke-linejoin:miter;stroke:rgb(0%,0%,0%);stroke-opacity:1;stroke-miterlimit:10;" d="M 75.527344 136.832031 L 69.472656 153.835938 "/>
<path style="fill:none;stroke-width:1.2;stroke-linecap:butt;stroke-linejoin:miter;stroke:rgb(0%,0%,0%);stroke-opacity:1;stroke-miterlimit:10;" d="M 70.921875 137.105469 L 66.078125 150.710938 "/>
<path style="fill:none;stroke-width:1.2;stroke-linecap:butt;stroke-linejoin:miter;stroke:rgb(0%,0%,0%);stroke-opacity:1;stroke-miterlimit:10;" d="M 66.007812 121.496094 L 75.527344 136.832031 "/>
<path style="fill:none;stroke-width:1.2;stroke-linecap:butt;stroke-linejoin:miter;stroke:rgb(0%,0%,0%);stroke-opacity:1;stroke-miterlimit:10;" d="M 69.472656 153.835938 L 81.171875 167.578125 "/>
<path style="fill:none;stroke-width:1.2;stroke-linecap:butt;stroke-linejoin:miter;stroke:rgb(0%,0%,0%);stroke-opacity:1;stroke-miterlimit:10;" d="M 69.472656 153.835938 L 52.40625 159.703125 "/>
<path style="fill:none;stroke-width:1.2;stroke-linecap:butt;stroke-linejoin:miter;stroke:rgb(0%,0%,0%);stroke-opacity:1;stroke-miterlimit:10;" d="M 81.171875 167.578125 L 98.925781 164.320312 "/>
<path style="fill:none;stroke-width:1.2;stroke-linecap:butt;stroke-linejoin:miter;stroke:rgb(0%,0%,0%);stroke-opacity:1;stroke-miterlimit:10;" d="M 82.179688 163.074219 L 96.382812 160.46875 "/>
<path style="fill:none;stroke-width:1.2;stroke-linecap:butt;stroke-linejoin:miter;stroke:rgb(0%,0%,0%);stroke-opacity:1;stroke-miterlimit:10;" d="M 50.296875 159.457031 L 49.238281 168.417969 "/>
<path style="fill:none;stroke-width:1.2;stroke-linecap:butt;stroke-linejoin:miter;stroke:rgb(100%,0%,0%);stroke-opacity:1;stroke-miterlimit:10;" d="M 49.238281 168.417969 L 48.179688 177.378906 "/>
<path style="fill:none;stroke-width:1.2;stroke-linecap:butt;stroke-linejoin:miter;stroke:rgb(0%,0%,0%);stroke-opacity:1;stroke-miterlimit:10;" d="M 54.515625 159.953125 L 53.457031 168.914062 "/>
<path style="fill:none;stroke-width:1.2;stroke-linecap:butt;stroke-linejoin:miter;stroke:rgb(100%,0%,0%);stroke-opacity:1;stroke-miterlimit:10;" d="M 53.457031 168.914062 L 52.398438 177.878906 "/>
<path style="fill:none;stroke-width:1.2;stroke-linecap:butt;stroke-linejoin:miter;stroke:rgb(0%,0%,0%);stroke-opacity:1;stroke-miterlimit:10;" d="M 52.40625 159.703125 L 37.175781 150.019531 "/>
<path style=" stroke:none;fill-rule:nonzero;fill:rgb(100%,100%,100%);fill-opacity:1;" d="M 46.289062 172.128906 L 54.289062 172.128906 L 54.289062 183.128906 L 46.289062 183.128906 Z M 46.289062 172.128906 "/>
<g style="fill:rgb(100%,0%,0%);fill-opacity:1;">
  <use xlink:href="#glyph0-1" x="46.289062" y="180.791992"/>
</g>
<path style="fill:none;stroke-width:1.2;stroke-linecap:butt;stroke-linejoin:miter;stroke:rgb(0%,0%,0%);stroke-opacity:1;stroke-miterlimit:10;" d="M 37.175781 150.019531 L 35.25 132.074219 "/>
<path style="fill:none;stroke-width:1.2;stroke-linecap:butt;stroke-linejoin:miter;stroke:rgb(0%,0%,0%);stroke-opacity:1;stroke-miterlimit:10;" d="M 35.25 132.074219 L 48.082031 119.378906 "/>
<path style="fill:none;stroke-width:1.2;stroke-linecap:butt;stroke-linejoin:miter;stroke:rgb(0%,0%,0%);stroke-opacity:1;stroke-miterlimit:10;" d="M 48.082031 119.378906 L 66.007812 121.496094 "/>
<path style="fill:none;stroke-width:1.2;stroke-linecap:butt;stroke-linejoin:miter;stroke:rgb(0%,0%,0%);stroke-opacity:1;stroke-miterlimit:10;" d="M 128.378906 174.800781 L 140.078125 188.546875 "/>
<path style="fill:none;stroke-width:1.2;stroke-linecap:butt;stroke-linejoin:miter;stroke:rgb(0%,0%,0%);stroke-opacity:1;stroke-miterlimit:10;" d="M 140.078125 188.546875 L 157.828125 185.285156 "/>
<path style="fill:none;stroke-width:1.2;stroke-linecap:butt;stroke-linejoin:miter;stroke:rgb(0%,0%,0%);stroke-opacity:1;stroke-miterlimit:10;" d="M 141.085938 184.042969 L 155.285156 181.433594 "/>
</g>
</svg>

<svg xmlns="http://www.w3.org/2000/svg" xmlns:xlink="http://www.w3.org/1999/xlink" width="300pt" height="300pt" viewBox="0 0 300 300"><defs><symbol overflow="visible"><path d="M.453 1.594v-7.938h4.5v7.938zm.5-.5h3.5v-6.938h-3.5zm0 0"/></symbol><symbol overflow="visible" id="a"><path d="M3.547-5.953c-.65 0-1.164.242-1.547.72-.375.48-.563 1.13-.563 1.952 0 .835.188 1.49.563 1.967.383.48.898.72 1.547.72.644 0 1.156-.24 1.53-.72.376-.476.564-1.132.564-1.968 0-.822-.187-1.474-.562-1.954-.375-.477-.887-.72-1.53-.72zm0-.734c.914 0 1.648.312 2.203.937.55.617.828 1.438.828 2.47 0 1.042-.277 1.87-.828 2.483-.555.617-1.29.922-2.203.922-.93 0-1.668-.305-2.22-.922C.774-1.41.5-2.237.5-3.28c0-1.033.273-1.853.828-2.47.55-.625 1.29-.938 2.22-.938zm0 0"/></symbol><symbol overflow="visible" id="b"><path d="M.89-6.563H2.08l2.906 5.485v-5.484h.86V0H4.656L1.75-5.484V0H.89zm0 0"/></symbol><symbol overflow="visible" id="c"><path d="M.89-6.563h.876v2.688H5v-2.688h.89V0H5v-3.125H1.766V0H.89zm0 0"/></symbol></defs><g><path fill="#fff" d="M0 0h300v300H0z"/><path d="M253.05 104.23l5.848 6.872" stroke-width="1.2" stroke="#f00" stroke-miterlimit="10" fill="none"/><path d="M258.898 111.102l5.852 6.87M235.297 107.488l8.88-1.63" stroke-width="1.2" stroke="#000" stroke-miterlimit="10" fill="none"/><path d="M244.176 105.86l8.875-1.63" stroke-width="1.2" stroke="#f00" stroke-miterlimit="10" fill="none"/><path d="M249.05 98.73h8v11h-8zm0 0" fill="#fff"/><use xlink:href="#a" x="249.051" y="107.394" fill="#f00"/><path d="M264.75 117.973l-6.055 17.004M258.695 134.977l-8.875 1.632" stroke-width="1.2" stroke="#000" stroke-miterlimit="10" fill="none"/><path d="M249.82 136.61l-8.875 1.628M240.945 138.238l-5.85-6.87" stroke-width="1.2" stroke="#00f" stroke-miterlimit="10" fill="none"/><path d="M235.094 131.367l-5.848-6.875" stroke-width="1.2" stroke="#000" stroke-miterlimit="10" fill="none"/><path d="M240.945 138.238l-3.027 8.5" stroke-width="1.2" stroke="#00f" stroke-miterlimit="10" fill="none"/><path d="M237.918 146.738l-3.027 8.504" stroke-width="1.2" stroke="#000" stroke-miterlimit="10" fill="none"/><path d="M237.945 132.738h7v11h-7zm0 0" fill="#fff"/><use xlink:href="#b" x="237.945" y="141.401" fill="#00f"/><path d="M229.246 124.492l6.05-17.004M234.89 155.242l-17.75 3.262M233.883 159.746l-14.2 2.606M246.59 168.984l-11.7-13.742M217.14 158.504l-6.054 17.004M211.086 175.508l11.7 13.742M215.492 174.13l9.36 10.99M211.086 175.508l-17.75 3.258M222.785 189.25l17.754-3.262M240.54 185.988l6.05-17.004M237.145 182.867l4.84-13.605M191.332 178.055l-3.023 8.5" stroke-width="1.2" stroke="#000" stroke-miterlimit="10" fill="none"/><path d="M188.31 186.555l-3.03 8.504" stroke-width="1.2" stroke="#f00" stroke-miterlimit="10" fill="none"/><path d="M195.336 179.477l-3.027 8.503" stroke-width="1.2" stroke="#000" stroke-miterlimit="10" fill="none"/><path d="M192.31 187.98l-3.03 8.504" stroke-width="1.2" stroke="#f00" stroke-miterlimit="10" fill="none"/><path d="M193.336 178.766l-5.852-6.87" stroke-width="1.2" stroke="#000" stroke-miterlimit="10" fill="none"/><path d="M187.484 171.895l-5.85-6.872" stroke-width="1.2" stroke="#00f" stroke-miterlimit="10" fill="none"/><path d="M179.28 190.27h8v11h-8zm0 0" fill="#fff"/><use xlink:href="#a" x="179.281" y="198.933" fill="#f00"/><path d="M181.633 165.023l-8.875 1.63" stroke-width="1.2" stroke="#00f" stroke-miterlimit="10" fill="none"/><path d="M172.758 166.652l-8.875 1.63" stroke-width="1.2" stroke="#000" stroke-miterlimit="10" fill="none"/><path d="M174.633 159.523h14v11h-14zm0 0" fill="#fff"/><g fill="#00f"><use xlink:href="#b" x="174.633" y="168.187"/><use xlink:href="#c" x="181.61" y="168.187"/></g><path d="M163.883 168.28l-11.7-13.74M159.477 169.66l-9.36-10.996M157.828 185.285l6.055-17.004M152.184 154.54l-17.754 3.257M134.43 157.797l-5.848-6.87" stroke-width="1.2" stroke="#000" stroke-miterlimit="10" fill="none"/><path d="M128.582 150.926l-5.852-6.87" stroke-width="1.2" stroke="#00f" stroke-miterlimit="10" fill="none"/><path d="M134.43 157.797l-6.05 17.004M137.824 160.922l-4.84 13.605" stroke-width="1.2" stroke="#000" stroke-miterlimit="10" fill="none"/><path d="M122.73 144.055l-8.875 1.63" stroke-width="1.2" stroke="#00f" stroke-miterlimit="10" fill="none"/><path d="M113.855 145.684l-8.878 1.632" stroke-width="1.2" stroke="#000" stroke-miterlimit="10" fill="none"/><path d="M115.73 138.555h14v11h-14zm0 0" fill="#fff"/><g fill="#00f"><use xlink:href="#b" x="115.73" y="147.218"/><use xlink:href="#c" x="122.708" y="147.218"/></g><path d="M104.977 147.316l-11.7-13.746M100.574 148.69l-9.36-10.99M98.926 164.32l6.05-17.004M93.277 133.57l-17.75 3.262M75.527 136.832l-6.054 17.004M70.922 137.105l-4.844 13.606M66.008 121.496l9.52 15.336M69.473 153.836l11.7 13.742M69.473 153.836l-17.067 5.867M81.172 167.578l17.754-3.258M82.18 163.074l14.203-2.605M50.297 159.457l-1.06 8.96" stroke-width="1.2" stroke="#000" stroke-miterlimit="10" fill="none"/><path d="M49.238 168.418l-1.058 8.96" stroke-width="1.2" stroke="#f00" stroke-miterlimit="10" fill="none"/><path d="M54.516 159.953l-1.06 8.96" stroke-width="1.2" stroke="#000" stroke-miterlimit="10" fill="none"/><path d="M53.457 168.914l-1.06 8.965" stroke-width="1.2" stroke="#f00" stroke-miterlimit="10" fill="none"/><path d="M52.406 159.703l-15.23-9.683" stroke-width="1.2" stroke="#000" stroke-miterlimit="10" fill="none"/><path d="M46.29 172.13h8v11h-8zm0 0" fill="#fff"/><use xlink:href="#a" x="46.289" y="180.792" fill="#f00"/><path d="M37.176 150.02l-1.926-17.946M35.25 132.074l12.832-12.695M48.082 119.38l17.926 2.116M128.38 174.8l11.698 13.747M140.078 188.547l17.75-3.262M141.086 184.043l14.2-2.61" stroke-width="1.2" stroke="#000" stroke-miterlimit="10" fill="none"/></g></svg>
